X: 1
P: The Laird of Drumblair
M: 4/4
L: 1/8
C: J. Scott Skinner
C: from John Chambers, mods by T. Traub 4-18-2007
R: Strathspey
K: A
B: Caledonian Companion, p.73.
B: Harp and Claymore, p.93.
B: The Scottish Violinist, J.S.Skinner, p 10.
N: Hunter 134; BSFC IV-20; Bain 13
D: Ron Ganella on three fiddles tape
N: Skinner also published this tune as the reel "Angus Campbell".
M: 4/4
L: 1/8
K: A
|: E2 | "A"~A2 c>A E-<A c>e | {g}a2 g>a f-<a e>c | "D"(3def "(E)"(3efg "A"(3aed (3cBA | [1 "Bm"(3Bcd (3cBA "E7"(3GFE (3dcB :| [2 "E7"(3GFE (3dcB "A"{G}A2 |]
(3efg | "A"{g}a2 e>a c-<a A>a | c/B/A e>A a>e c-<A | "Bm"{^a}b2 f>b d-b | d/c/B f>B "E7"b>B d-<b |
"A"{g}a2 e>a c-<a A>a | c/B/A e>A a>e c-<A | "D"(3def "(E)"(3efg "A"(3aed (3cBA | "E7"(3GFE (3dcB "A"{G}A2 |]
